packages/kaspersky-hexa-ui-icons/src/iconsSVGs/16/Cancel1.svg

<svg width="16" height="16" viewBox="0 0 16 16" fill="none" xmlns="http://www.w3.org/2000/svg">
<path d="M5.87546 5.8754C6.1293 5.62156 6.54086 5.62156 6.7947 5.8754L8.00012 7.08082L9.20554 5.8754C9.45938 5.62156 9.87094 5.62156 10.1248 5.8754C10.3786 6.12924 10.3786 6.5408 10.1248 6.79464L8.91936 8.00006L10.1247 9.20536C10.3785 9.4592 10.3785 9.87076 10.1247 10.1246C9.87082 10.3784 9.45926 10.3784 9.20542 10.1246L8.00012 8.9193L6.79482 10.1246C6.54098 10.3784 6.12943 10.3784 5.87559 10.1246C5.62174 9.87076 5.62174 9.4592 5.87559 9.20536L7.08088 8.00006L5.87546 6.79464C5.62162 6.5408 5.62162 6.12924 5.87546 5.8754Z" fill="black"/>
<path fill-rule="evenodd" clip-rule="evenodd" d="M8 15C11.866 15 15 11.866 15 8C15 4.13401 11.866 1 8 1C4.13401 1 1 4.13401 1 8C1 11.866 4.13401 15 8 15ZM8 13.7C11.148 13.7 13.7 11.148 13.7 8C13.7 4.85198 11.148 2.3 8 2.3C4.85198 2.3 2.3 4.85198 2.3 8C2.3 11.148 4.85198 13.7 8 13.7Z" fill="black"/>
</svg>

<svg xmlns="http://www.w3.org/2000/svg" width="16" height="16" fill="none" viewBox="0 0 16 16"><path fill="#000" d="M5.8755 5.8754a.65.65 0 0 1 .9192 0l1.2054 1.2054 1.2054-1.2054a.65.65 0 0 1 .9193.9192L8.9194 8.0001l1.2053 1.2053a.65.65 0 0 1-.9193.9192L8.0001 8.9193l-1.2053 1.2053a.65.65 0 0 1-.9192-.9192L7.0809 8 5.8755 6.7946a.65.65 0 0 1 0-.9192"/><path fill="#000" fill-rule="evenodd" d="M8 15c3.866 0 7-3.134 7-7s-3.134-7-7-7-7 3.134-7 7 3.134 7 7 7m0-1.3c3.148 0 5.7-2.552 5.7-5.7S11.148 2.3 8 2.3 2.3 4.852 2.3 8s2.552 5.7 5.7 5.7" clip-rule="evenodd"/></svg>
